X: 1
T: Brendan McMahon's
R: reel
M: 4/4
L: 1/8
K: Bmin
|: "Bm" B2 BA BAFB | "D" A2 FA DAFA | "Bm" B2 BA BAFB | "D" ABde fedc |
"Bm" B2 BA BAFB | "D" A2 FA DAFA | "Em" G3 E F2 dB | "D" AFDE FEE2 :|
|: "G" G2 GF GBdB | "D" A2 FA DAFA | "G" G2 GF GBdB | "D" AFDE FEEF |
"G" G2 GF GBdB | "D" A2 FA DAFA | "C" G3 E "D"F2 dB | AFDE FEE2 :|


